X:1
T:Charles Guiteau
M:4/4
L:1/4
K:Eb
 G| B, E E3/2 F/2| G3 G| B B A/2A/2 G| F3| F| A F D3/2 C/2| B, B2 B|\
 c B A F| E3||
